X:1
T:The German Cotillion
T:The German Cotillion
T:Anonymous
T:Public Domain - https://imslp.org/wiki/The_German_Cotillion_(Anonymous)
T:Public Domain - https://imslp.org/wiki/The_German_Cotillion_(Anonymous)
C:Anonymous
Z:Public Domain - https://imslp.org/wiki/The_German_Cotillion_(Anonymous)
%%score { 1 | ( 2 3 ) }
L:1/8
Q:1/4=85
M:3/4
K:G
V:1 treble nm="Piano" snm="Pno."
V:2 bass 
V:3 bass 
V:1
!ff!"^Tempo di Waltz" (GA) | [DGB]2 [DGB]2 [DGB]2 | [DGB]2 [DGB]2!p! (GA) | [GB]3 [Ac] [GB]2 | %4
 [GB]2 g2 d2 | [GB]3 [Ac] [GB]2 | G2 z2 (FG) | A3 B A2 | A2!>(! .e2 .d2!>)! |{/c} B2 .A2 .B2 | %10
 G3 .A!<(!(Bc)!<)! |!mf! d3 .e(d^c) | d2!>(! b2 g2!>)! | [Bd]3 [ce] [Bd]2 | [GB]2 z2 (FG) | %15
 A3 B A2 | A2!>(! e2 d2!>)! |{/c} B2 .A2 .B2 | G2 z2 ::!f! (fg) | a3 .b(a^g) | a2 .d'2 .a2 | %22
!>(! b2 (a!>)!g)fe | .f2 (d!<(!e).f.g!<)! | a3 ba^g | .a2 .d'2 .g2 | .^c'.b.a.g.f.e | d2 z2 :: %28
!p! (ga) | .[db].[db] .[db]2 !>![ec']2 | ([ec'][db])([db][ca]).[Bg].[db] | %31
 ([db][ca])([ca][Bg]).[Af].[ca] | ([ca][Bg])[Bg]!<(!.d.g.a!<)! | %33
!mf! .[db].[db] .[db]2!>(! .[ec']2!>)! | ([ec'][db])([db][ca]).[Bg].[db] | %35
 ([db][ca])([ca][Bg]).[Af].[ca] | [Bg]2 z2 ::!f! (Bd) | (dc).c.A.f.a | (ag).g.G.G.d | %40
 (dc).c.A.f.a | g3 z!mf! (gf) | (fe).e.A.c.e | (ed).d.G.B.d |!f! (dc).c.A.f.d | !fermata!g4 :| %46
V:2
 z2 |!ff! .G,,2 .B,,2 .D,2 | G,2 G,,2 z2 |!p! G,2 [B,D]2 [B,D]2 | G,2 [B,D]2 [B,D]2 | %5
 G,2 [B,D]2 [B,D]2 | G,2 [B,D]2 [B,D]2 | D,2 [F,CD]2 [F,CD]2 | D,2 [F,CD]2 [F,CD]2 | %9
 G,2 [B,D]2 [B,D]2 | G,2 [B,D]2 [B,D]2 | G,2 [B,D]2 [B,D]2 | G,2 [B,D]2 [B,D]2 | %13
 G,2 [B,D]2 [B,D]2 | G,2 [B,D]2 [B,D]2 | D,2 [F,CD]2 [F,CD]2 | D,2 [F,CD]2 [F,CD]2 | %17
 G,2 [B,D]2 [B,D]2 | [G,B,D]2 z2 :: z2 | D,2 [F,A,D]2 [F,A,D]2 | D,2 [DF]2 [DF]2 | %22
 A,2 [^CEG]2 [CEG]2 | D,2 [A,DF]2 [A,DF]2 | D,2 [F,A,D]2 [F,A,D]2 | D,2 [DF]2 [DF]2 | %26
 [A,^CEG]2 [A,CEG]2 [A,CEG]2 | [DF]2 z2 :: z2 | G,,2 G,2 G,2 | G,,2 G,2 G,2 | D,2 D2 D2 | %32
 G,2 [B,D]2 [B,D]2 | G,,2 [G,B,D]2!>(! [G,CE]2!>)! | G,2 [B,D]2 [B,D]2 | D,2 [F,CD]2 [F,CD]2 | %36
 G,2 z2 :: z2 | D,2 [F,A,C]2 [F,A,C]2 | G,2 [B,D]2 [B,D]2 | D,2 [F,A,C]2 [F,A,C]2 | %41
 [G,B,]2 G,,2 z2 | C,2 [A,C]2 [A,C]2 | D,2 [G,B,]2 [G,B,]2 | D,2 [F,A,C]2 [F,A,C]2 | %45
 !fermata!B,4 :| %46
V:3
 x2 | x6 | x6 | x6 | x6 | x6 | x6 | x6 | x6 | x6 | x6 | x6 | x6 | x6 | x6 | x6 | x6 | x6 | x4 :: %19
 x2 | x6 | x6 | x6 | x6 | x6 | x6 | x6 | x4 :: x2 | x6 | x6 | x6 | x6 | x6 | x6 | x6 | x4 :: x2 | %38
 x6 | x6 | x6 | x6 | x6 | x6 | x6 | !fermata!G,4 :| %46

